src/assets/img/executor.svg

<svg width="95" height="32" viewBox="0 0 95 32" fill="none" xmlns="http://www.w3.org/2000/svg">
<path d="M41.1938 19.2291C41.1938 20.9464 40.5994 22.4522 39.3577 23.6807C38.1292 24.9092 36.6497 25.5168 34.9325 25.5168H28.658V31.7781H25.5273V22.3466H28.658H34.9457C35.7911 22.3466 36.5176 22.0427 37.1385 21.4351C37.7461 20.8275 38.0764 20.0877 38.0764 19.2291C38.0764 18.3837 37.7725 17.6308 37.1385 17.0231C36.5308 16.4155 35.7911 16.1117 34.9457 16.1117H28.658L25.5273 12.9414H34.9325C36.6497 12.9414 38.1292 13.549 39.3577 14.7775C40.5862 16.0192 41.1938 17.5119 41.1938 19.2291Z" fill="#222729"/>
<path d="M44.3552 28.6079L42.7568 31.7649H39.2695L48.6879 12.9414L54.9756 25.5036H51.4487L48.7011 19.9689L45.9271 25.5036L44.3552 28.6079ZM58.0931 31.7649H54.5925L53.0338 28.6343H56.5211L58.0931 31.7649Z" fill="#222729"/>
<path d="M72.2396 26.4943L75.3703 27.5247C74.9476 28.1587 74.4588 28.7532 73.8644 29.2683C73.2964 29.7835 72.6887 30.2326 72.0018 30.6157C71.3414 30.9856 70.6413 31.2762 69.8619 31.4611C69.109 31.6725 68.3296 31.7649 67.5106 31.7649C64.8951 31.7649 62.7156 30.8271 60.8795 28.9909C59.0433 27.1548 58.1055 24.962 58.1055 22.3598C58.1055 19.7707 59.0169 17.5647 60.8795 15.7286C62.676 13.8529 64.8951 12.9414 67.5106 12.9414C68.8052 12.9414 70.0336 13.1792 71.1829 13.6679C72.3057 14.1567 73.3228 14.8436 74.1946 15.7154L71.9358 17.9214C70.7073 16.6929 69.2543 16.0853 67.5106 16.0853C65.7934 16.0853 64.3139 16.6797 63.059 17.9214C61.8305 19.1499 61.2493 20.6293 61.2493 22.3466C61.2493 24.0638 61.8438 25.5697 63.059 26.7982C64.2875 28.0266 65.7934 28.6079 67.5106 28.6079C68.4485 28.6079 69.3203 28.4229 70.1261 28.0663C70.9187 27.6964 71.6188 27.1812 72.2396 26.4943ZM67.5106 20.8011H75.3703L72.2396 23.9317H67.5106V20.8011Z" fill="#222729"/>
<path d="M94.893 12.9414L90.983 16.0985H79.2266V12.9414H94.893ZM90.983 23.9317H79.2266V20.8011H90.983V23.9317ZM94.893 31.5007V31.7649H79.2266V28.6079H90.983L94.893 31.5007Z" fill="#222729"/>
<path d="M8.32422 14.1176C8.90265 14.8529 9.19187 15.8186 9.19187 17.0147C9.19187 18.2206 8.90265 19.1961 8.32422 19.9412C7.64775 20.7941 6.73108 21.2206 5.57422 21.2206C4.36834 21.2206 3.45167 20.7745 2.82422 19.8824V21H1.85363V10.4118H2.94187V13.9853C3.62814 13.2206 4.5203 12.8382 5.61834 12.8382C6.7654 12.8382 7.66736 13.2647 8.32422 14.1176ZM7.45657 19.2647C7.84873 18.7451 8.04481 17.9951 8.04481 17.0147C8.04481 16.0637 7.84383 15.3186 7.44187 14.7794C6.99089 14.152 6.32422 13.8382 5.44187 13.8382C4.57912 13.8382 3.92226 14.1324 3.47128 14.7206C3.03991 15.2696 2.82422 16.0343 2.82422 17.0147C2.82422 18.0147 3.03991 18.7843 3.47128 19.3235C3.93206 19.9216 4.59383 20.2206 5.45657 20.2206C6.32912 20.2206 6.99579 19.902 7.45657 19.2647ZM16.4161 13.0735H17.5191L13.872 22.5588C13.5877 23.3333 13.2299 23.8775 12.7985 24.1912C12.4946 24.4167 12.0338 24.5294 11.4161 24.5294L11.2102 24.5147V23.4706L11.475 23.5C11.8279 23.5196 12.0975 23.4608 12.2838 23.3235C12.4308 23.2059 12.573 23.0098 12.7102 22.7353C12.8475 22.4608 13.0534 21.9559 13.3279 21.2206L9.88672 13.0588H11.0044L13.8426 19.8382L16.4161 13.0735Z" fill="#222729"/>
</svg>

<svg xmlns="http://www.w3.org/2000/svg" fill="none" viewBox="0 0 95 32"><path fill="#222729" d="M41.194 19.23c0 1.716-.595 3.222-1.836 4.45-1.229 1.23-2.708 1.837-4.425 1.837h-6.275v6.261h-3.13v-9.431h9.418c.845 0 1.572-.304 2.193-.912.607-.607.937-1.347.937-2.206 0-.845-.303-1.598-.938-2.206a3.004 3.004 0 0 0-2.192-.911h-6.288l-3.13-3.17h9.404c1.718 0 3.197.607 4.426 1.835 1.228 1.242 1.836 2.735 1.836 4.452zM44.355 28.608l-1.598 3.157H39.27l9.418-18.824 6.288 12.563h-3.527L48.7 19.969l-2.774 5.535-1.572 3.104zm13.738 3.157h-3.5l-1.56-3.13h3.488l1.572 3.13zM72.24 26.494l3.13 1.03a8.559 8.559 0 0 1-1.506 1.744c-.568.515-1.175.965-1.862 1.348-.66.37-1.36.66-2.14.845a8.63 8.63 0 0 1-2.351.304c-2.616 0-4.795-.938-6.631-2.774-1.837-1.836-2.775-4.029-2.775-6.631 0-2.59.912-4.795 2.775-6.631 1.796-1.876 4.015-2.788 6.63-2.788 1.295 0 2.524.238 3.673.727a9.741 9.741 0 0 1 3.012 2.047l-2.26 2.206c-1.228-1.228-2.68-1.836-4.424-1.836-1.718 0-3.197.595-4.452 1.836-1.228 1.229-1.81 2.708-1.81 4.426 0 1.717.595 3.223 1.81 4.451 1.228 1.229 2.734 1.81 4.452 1.81.938 0 1.81-.185 2.615-.542a6.546 6.546 0 0 0 2.114-1.572zm-4.73-5.693h7.86l-3.13 3.13h-4.73v-3.13zM94.893 12.941l-3.91 3.158H79.227V12.94h15.666zm-3.91 10.99H79.227v-3.13h11.756v3.13zm3.91 7.57v.264H79.227v-3.157h11.756l3.91 2.893zM8.324 14.118c.579.735.868 1.7.868 2.897 0 1.206-.29 2.181-.868 2.926-.676.853-1.593 1.28-2.75 1.28-1.206 0-2.122-.447-2.75-1.339V21h-.97V10.412h1.088v3.573c.686-.764 1.578-1.147 2.676-1.147 1.147 0 2.05.427 2.706 1.28zm-.867 5.147c.392-.52.588-1.27.588-2.25 0-.951-.201-1.696-.603-2.236-.451-.627-1.118-.94-2-.94-.863 0-1.52.293-1.97.882-.432.549-.648 1.313-.648 2.294 0 1 .216 1.77.647 2.308.461.599 1.123.898 1.986.898.872 0 1.539-.319 2-.956zm8.96-6.192h1.102l-3.647 9.486c-.284.774-.642 1.319-1.073 1.632-.304.226-.765.338-1.383.338l-.206-.014V23.47l.265.029c.353.02.623-.04.809-.177.147-.117.289-.313.426-.588.137-.274.343-.78.618-1.514l-3.441-8.162h1.117l2.839 6.78 2.573-6.765z"/></svg>
